Numix-GalliumOS/32/mimetypes/application-web-template.svg

<?xml version="1.0" encoding="UTF-8" standalone="no"?>
<svg
   xmlns:dc="http://purl.org/dc/elements/1.1/"
   xmlns:cc="http://creativecommons.org/ns#"
   xmlns:rdf="http://www.w3.org/1999/02/22-rdf-syntax-ns#"
   xmlns:svg="http://www.w3.org/2000/svg"
   xmlns="http://www.w3.org/2000/svg"
   xmlns:sodipodi="http://sodipodi.sourceforge.net/DTD/sodipodi-0.dtd"
   xmlns:inkscape="http://www.inkscape.org/namespaces/inkscape"
   width="32"
   height="32"
   viewBox="0 0 32 32"
   id="svg2"
   version="1.1"
   inkscape:version="0.48.5 r10040"
   sodipodi:docname="application-web-template.svg">
  <metadata
     id="metadata30">
    <rdf:RDF>
      <cc:Work
         rdf:about="">
        <dc:format>image/svg+xml</dc:format>
        <dc:type
           rdf:resource="http://purl.org/dc/dcmitype/StillImage" />
      </cc:Work>
    </rdf:RDF>
  </metadata>
  <defs
     id="defs28" />
  <sodipodi:namedview
     pagecolor="#ffffff"
     bordercolor="#666666"
     borderopacity="1"
     objecttolerance="10"
     gridtolerance="10"
     guidetolerance="10"
     inkscape:pageopacity="0"
     inkscape:pageshadow="2"
     inkscape:window-width="1280"
     inkscape:window-height="970"
     id="namedview26"
     showgrid="true"
     inkscape:zoom="20.85965"
     inkscape:cx="25.471199"
     inkscape:cy="10.542589"
     inkscape:window-x="0"
     inkscape:window-y="0"
     inkscape:window-maximized="1"
     inkscape:current-layer="svg2">
    <inkscape:grid
       type="xygrid"
       id="grid3014" />
  </sodipodi:namedview>
  <path
     inkscape:connector-curvature="0"
     style="fill:#7099c3;fill-opacity:1"
     d="M 5.34375,0 C 4.6562764,1.5e-5 4,0.689007 4,1.40625 l 0,29.1875 C 4,31.270239 4.6953364,32 5.34375,32 l 21.3125,0 C 27.304664,32 28,31.270239 28,30.59375 L 28,9.0000004 28,1.375 C 28,0.702049 27.297951,0 26.625,0 L 19,0 5.34375,0 z"
     id="path4-1" />
  <path
     style="fill:#ffffff"
     inkscape:connector-curvature="0"
     id="path12"
     d="m 10.270182,14 0,1 11.459919,0 0,-1 z" />
  <path
     style="fill:#ffffff"
     inkscape:connector-curvature="0"
     id="path14"
     d="m 9.6365589,16.362009 0,1.276298 12.7271661,0 0,-1.276298 z" />
  <path
     style="fill:#ffffff"
     inkscape:connector-curvature="0"
     id="path16"
     d="m 10.270182,19.000006 0,1 11.459919,0 0,-1 z" />
  <path
     style="fill:#ffffff"
     inkscape:connector-curvature="0"
     id="path18"
     d="m 15.499849,10.636902 0,12.726513 1,0 0,-12.726513 z" />
  <g
     style="fill:none;stroke:#ffffff"
     id="g20"
     transform="matrix(1.1669608,0,0,1.1669009,-2.6712309,-4.0040583)">
    <g
       style="stroke-width:2"
       id="g22">
      <path
         d="m 20.440814,33.002083 c -1.998076,-6.001389 -1.998076,-12.002777 0,-18.004166"
         transform="matrix(0.54545,0,0,0.54545,2.90922,4.90928)"
         id="path24"
         inkscape:connector-curvature="0" />
      <path
         d="m 27.466306,33.002083 c 2.005237,-4.99877 2.005237,-12.002777 0,-18.004166"
         transform="matrix(0.54545,0,0,0.54545,2.90922,4.90928)"
         id="path26"
         inkscape:connector-curvature="0" />
    </g>
    <path
       style="stroke-width:1.82099998;stroke-linecap:round"
       d="m 33.055052,27.317092 c 0,5.026824 -4.074922,9.101746 -9.101746,9.101746 -5.026824,0 -9.101747,-4.074922 -9.101747,-9.101746 0,-5.026824 4.074923,-9.101747 9.101747,-9.101747 5.026824,0 9.101746,4.074923 9.101746,9.101747 z"
       transform="matrix(0.59913,0,0,0.59913,1.64887,1.63352)"
       id="path28"
       inkscape:connector-curvature="0" />
  </g>
</svg>

<svg xmlns="http://www.w3.org/2000/svg" viewBox="0 0 32 32">
 <path d="m 5.344 0 c -0.687 0 -1.344 0.689 -1.344 1.406 l 0 29.19 c 0 0.676 0.695 1.406 1.344 1.406 l 21.313 0 c 0.648 0 1.344 -0.73 1.344 -1.406 l 0 -21.594 0 -7.625 c 0 -0.673 -0.702 -1.375 -1.375 -1.375 l -7.625 0 -13.656 0 z" style="fill:#7099c3;fill-opacity:1"/>
 <path d="m 10.27 14 0 1 11.46 0 0 -1 z" style="fill:#fff"/>
 <path d="m 9.637 16.362 0 1.276 12.727 0 0 -1.276 z" style="fill:#fff"/>
 <path d="m 10.27 19 0 1 11.46 0 0 -1 z" style="fill:#fff"/>
 <path d="m 15.5 10.637 0 12.727 1 0 0 -12.727 z" style="fill:#fff"/>
 <g transform="matrix(1.1669608,0,0,1.1669009,-2.6712309,-4.0040583)" style="fill:none;stroke:#fff">
  <g style="stroke-width:2">
   <path d="m 20.441 33 c -1.998 -6 -1.998 -12 0 -18" transform="matrix(0.54545,0,0,0.54545,2.90922,4.90928)"/>
   <path d="m 27.466 33 c 2.01 -4.999 2.01 -12 0 -18" transform="matrix(0.54545,0,0,0.54545,2.90922,4.90928)"/>
  </g>
  <path d="m 33.06 27.317 c 0 5.03 -4.075 9.102 -9.102 9.102 -5.03 0 -9.102 -4.075 -9.102 -9.102 0 -5.03 4.075 -9.102 9.102 -9.102 5.03 0 9.102 4.075 9.102 9.102 z" transform="matrix(0.59913,0,0,0.59913,1.64887,1.63352)" style="stroke-linecap:round;stroke-width:1.821"/>
 </g>
</svg>
